!!!OTL: Die Koenigstochter.
!!!OTL-incipit: ES WAR EIN WAISENKNABE
!!!ARE: Europa, Mitteleuropa, Deutschland, Niederrhein
!!!SCT: Z1058
!!!TXL: @@DE
!!!YEM: Copyright 1995, estate of Helmut Schaffrath.
**kern	**text
*ICvox	*
*M2/4	*
*k[]	*
*a:	*
!LO:TX:a:t=Vorſänger.	!
!LO:TX:a:t=Vom Niederrhein.	!
{8e	Es
=1	=1
8a	war
8cc	ein
8b	Waiſen-
(16ccL	.
16bJ)	.
=2	=2
4a	-kna-
8a}	-be,
{8b	ein
=3	=3
8cc	ʒar-
8cc	-tes
16ddL	Knä-
16ccJ	.
8dd	-be-
=4	=4
4ee	-lein,
8r}	.
{8ee	das
=5	=5
(16eeL	muß-
16ddJ)	.
8dd	-te
8ee	im-
8dd	-mer
=6	=6
4cc	hü-
8cc}	-ten
{8cc	am
=7	=7
(16ddL	See
16ccJ)	.
8dd	die
(16eeL	Röſ-
16ddJ)	.
8cc	-ſe-
=8	=8
4b/}	-lein!
!LO:TX:a:t=Alle.	!
{8b/	Und
8ee/	der
=9	=9
8dd/	jun-
8cc/	-ge
8b/	Kna-
8a	-be
=10	=10
4.g#;}	ſang
{8e	am
=11	=11
8a	See
(16ee/L	die
16ddJ)	.
8cc/	Röſ-
8b/	-ſe-
=12	=12
4a	-lein!
8r}	.
==	==
!!!AGN: Romanze, Ballade, Tod
!!!ONB: ESAC (Essen Associative Code) Database: ZUCCAL
!!!AMT: simple duple
!!!AIN: vox
!!!EED: Helmut Schaffrath
!!!EEV: 1.0
!!@@COMMENT:"In original two voices"
!!@@END:
!!!GTL: II. Gau- Leuschen.
!!!URL-scan: https://www.digitale-sammlungen.de/de/view/bsb11160573?page=131
!!!ENC: Anna Maria Matuszewska
!!!EEV: 2025/03/02
*-	*-
